src/assets/icons/object.svg

<svg fill="none" viewBox="0 0 24 24"><path stroke="currentColor" stroke-linecap="round" stroke-linejoin="round" stroke-width="1.5" d="m10.25 19.221 1.146.637c.22.122.331.184.447.208a.8.8 0 0 0 .314 0c.117-.024.227-.086.448-.208l1.145-.637m-7-1.944-1.11-.617c-.233-.129-.349-.194-.434-.286a.8.8 0 0 1-.166-.283C5 15.972 5 15.839 5 15.573V14.36m0-3.889V9.259c0-.266 0-.4.04-.518a.76.76 0 0 1 .166-.283c.085-.093.201-.157.434-.287l1.11-.616m3.5-1.945 1.146-.636c.22-.123.331-.184.447-.208a.8.8 0 0 1 .314 0c.117.024.227.085.448.208l1.145.636m3.5 1.945 1.11.616c.233.13.35.194.434.287q.056.059.097.13M19 14.36v1.213c0 .266 0 .399-.039.518a.8.8 0 0 1-.167.283c-.084.092-.201.157-.434.286l-1.11.617M19 10.471V9.259c0-.266 0-.4-.039-.518a.8.8 0 0 0-.07-.153m-8.641 2.856 1.75.972m0 0 1.75-.972m-1.75.972v1.944M6.75 9.499l-1.544-.858m12.044.858 1.641-.911M12 18.249V19.9"/></svg>

<svg width="24" height="24" viewBox="0 0 24 24" fill="none" xmlns="http://www.w3.org/2000/svg">
  <path d="M10.25 19.221L11.396 19.858C11.616 19.98 11.727 20.042 11.843 20.066C11.947 20.087 12.054 20.087 12.157 20.066C12.274 20.042 12.384 19.98 12.605 19.858L13.75 19.221M6.75 17.277L5.64 16.66C5.407 16.531 5.291 16.466 5.206 16.374C5.131 16.293 5.074 16.196 5.04 16.091C5 15.972 5 15.839 5 15.573V14.36M5 10.471V9.259C5 8.993 5 8.859 5.04 8.741C5.074 8.635 5.131 8.539 5.206 8.458C5.291 8.365 5.407 8.301 5.64 8.171L6.75 7.555M10.25 5.61L11.396 4.974C11.616 4.851 11.727 4.79 11.843 4.766C11.947 4.745 12.054 4.745 12.157 4.766C12.274 4.79 12.384 4.851 12.605 4.974L13.75 5.61M17.25 7.555L18.36 8.171C18.593 8.301 18.71 8.365 18.794 8.458C18.831 8.497 18.864 8.541 18.891 8.588M19 14.36V15.573C19 15.839 19 15.972 18.961 16.091C18.926 16.196 18.87 16.293 18.794 16.374C18.71 16.466 18.593 16.531 18.36 16.66L17.25 17.277M19 10.471V9.259C19 8.993 19 8.859 18.961 8.741C18.943 8.687 18.92 8.636 18.891 8.588M10.25 11.444L12 12.416M12 12.416L13.75 11.444M12 12.416V14.36M6.75 9.499L5.206 8.641M17.25 9.499L18.891 8.588M12 18.249V19.9" stroke="#314158" stroke-width="1.5" stroke-linecap="round" stroke-linejoin="round"/>
</svg>
